X:26
T:The Cuckoo   
O:No 26 Pages 10-11 William Clarke of Feltwell  MS 1858
N:Bar line added to divide bars 9 and 25
I:abc2nwc
M:2/2
L:1/8
K:G
G3A B2G2|c2e2d2z2|g3e d2B2|AGAB A2z2|
G3A B2G2|c2e2d2z2|g3e d2B2|AGAB G2z2|
g2d2g2d2"^*"|g2d2g2d2|g3e d2B2|AGAB G4:|
|:g3a g2f2|e2g2d2z2|c3e d2c2|B2c2d2z2|g3a g2f2|e2g2d2z2|c2A2B2G2|
FGAB A2z2|G3A B2G2|c2e2d2z2|g3e d2B2|
AGAB A2z2|g2d2g2d2"^*"|g2d2g2d2|g3e d2B2|AGAB G2z2|]

